;FLAVOR:Marlin
;TIME:3071
;Filament used: 2.74341m
;Layer height: 0.2
;MINX:45.003
;MINY:94.452
;MINZ:0.2
;MAXX:175.734
;MAXY:130.961
;MAXZ:8
;TARGET_MACHINE.NAME:Anycubic Kobra
;Generated with Cura_SteamEngine 5.7.2
M140 S60
M105
M190 S60
M104 S200
M105
M109 S200
M82 ;absolute extrusion mode
G28 ;Home
G1 Z15.0 F1200 ;Move the platform down 15mm
;Prime the extruder
G92 E0
G1 F200 E3
G92 E0
G92 E0
G92 E0
G1 F2400 E-6
;LAYER_COUNT:40
;LAYER:0
M107
M204 S2000
M205 X10 Y10
G0 F3000 X47.463 Y103.048 Z0.2
M204 S1000
M205 X8 Y8
;TYPE:SKIRT
G1 F2400 E0
G1 X49.151 Y102.288 E0.06157
G1 X57.686 Y101.51 E0.34662
G1 X65.387 Y101.159 E0.60303
G1 X70.868 Y101.146 E0.78532
G1 X71.033 Y98.09 E0.88712
G1 X71.534 Y96.775 E0.93392
G1 X72.196 Y95.912 E0.9701
G1 X73.169 Y95.066 E1.01298
G1 X73.301 Y94.99 E1.01805
G1 X74.585 Y94.549 E1.0632
G1 X75.774 Y94.452 E1.10288
G1 X85.793 Y94.939 E1.4365
G1 X95.771 Y95.791 E1.76958
G1 X105.709 Y97.001 E2.10256
G1 X115.571 Y98.575 E2.43473
G1 X125.355 Y100.499 E2.76637
G1 X135.036 Y102.772 E3.09712
G1 X144.481 Y105.366 E3.4229
G1 X154.022 Y108.373 E3.75562
G1 X163.298 Y111.691 E4.08328
G1 X172.608 Y115.417 E4.41681
G1 X173.721 Y116.248 E4.46301
G1 X174.763 Y117.835 E4.52616
G1 X175.393 Y119.353 E4.58082
G1 X175.734 Y121.06 E4.63872
G1 X175.728 Y122.748 E4.69486
G1 X175.399 Y124.337 E4.74883
G1 X174.703 Y125.975 E4.80803
G1 X173.66 Y127.44 E4.86784
G1 X172.803 Y128.326 E4.90884
G1 X171.078 Y129.588 E4.97993
G1 X169.536 Y130.308 E5.03653
G1 X168.501 Y130.634 E5.07262
G1 X166.339 Y130.961 E5.14535
G1 X164.751 Y130.934 E5.19817
G1 X163.238 Y130.708 E5.24905
G1 X154.511 Y127.433 E5.55908
G1 X146.145 Y124.64 E5.85243
G1 X137.592 Y122.12 E6.149
G1 X128.792 Y119.871 E6.45109
G1 X120.609 Y118.086 E6.72966
G1 X118.867 Y118.689 E6.79097
G1 X117.571 Y118.834 E6.83435
G1 X111.421 Y117.762 E7.04198
G1 X105.527 Y116.835 E7.24042
G1 X104.73 Y116.581 E7.26825
G1 X102.333 Y115.097 E7.36201
G1 X93.42 Y114.122 E7.66023
G1 X84.261 Y113.456 E7.96566
G1 X74.804 Y113.112 E8.28041
G1 X66.901 Y113.116 E8.54327
G1 X66.624 Y113.392 E8.55627
G1 X65.531 Y114.073 E8.59911
G1 X64.419 Y114.452 E8.63818
G1 X56.751 Y114.75 E8.89341
G1 X49.503 Y115.227 E9.135
G1 X48.295 Y115.053 E9.17559
G1 X47.034 Y114.492 E9.2215
G1 X46.15 Y113.693 E9.26113
G1 X45.642 Y113.023 E9.2891
G1 X45.088 Y111.827 E9.33294
G1 X45.003 Y110.807 E9.36698
G1 X45.222 Y106.498 E9.51048
G1 X45.438 Y105.733 E9.53692
G1 X46.093 Y104.339 E9.58815
G1 X47.463 Y103.048 E9.65076
M204 S2000
M205 X10 Y10
G0 F3000 X47.687 Y103.386
M204 S1000
M205 X8 Y8
G1 F2400 X49.256 Y102.68 E9.70798
G1 X57.704 Y101.91 E9.99013
G1 X65.388 Y101.559 E10.24597
G1 X71.247 Y101.545 E10.44084
G1 X71.429 Y98.175 E10.55309
G1 X71.887 Y96.973 E10.59587
G1 X72.49 Y96.186 E10.62885
G1 X73.431 Y95.368 E10.67032
G1 X74.665 Y94.944 E10.71372
G1 X75.755 Y94.852 E10.7501
G1 X85.759 Y95.338 E11.08322
G1 X95.723 Y96.188 E11.41583
G1 X105.646 Y97.396 E11.74831
G1 X115.494 Y98.967 E12.08
G1 X125.264 Y100.888 E12.41117
G1 X134.93 Y103.158 E12.74141
G1 X144.375 Y105.752 E13.06718
G1 X153.887 Y108.75 E13.3989
G1 X163.149 Y112.062 E13.72605
G1 X172.412 Y115.769 E14.0579
G1 X173.424 Y116.525 E14.09991
G1 X174.407 Y118.021 E14.15945
G1 X175.009 Y119.473 E14.21173
G1 X175.334 Y121.097 E14.26682
G1 X175.328 Y122.705 E14.3203
G1 X175.015 Y124.218 E14.37169
G1 X174.352 Y125.777 E14.42803
G1 X173.372 Y127.162 E14.48446
G1 X172.515 Y128.048 E14.52546
G1 X170.876 Y129.241 E14.59289
G1 X169.416 Y129.926 E14.64653
G1 X168.381 Y130.252 E14.68262
G1 X166.345 Y130.561 E14.75111
G1 X164.81 Y130.538 E14.80217
G1 X163.336 Y130.318 E14.85174
G1 X154.644 Y127.056 E15.16052
G1 X146.258 Y124.256 E15.45458
G1 X137.691 Y121.732 E15.75163
G1 X128.891 Y119.483 E16.05373
G1 X120.585 Y117.671 E16.33648
G1 X118.78 Y118.296 E16.40001
G1 X117.582 Y118.43 E16.44011
G1 X111.49 Y117.368 E16.64578
G1 X105.649 Y116.454 E16.84242
G1 X104.897 Y116.214 E16.86867
G1 X102.465 Y114.709 E16.9638
G1 X93.464 Y113.724 E17.26496
G1 X84.276 Y113.056 E17.57136
G1 X74.819 Y112.712 E17.88611
G1 X66.726 Y112.716 E18.15529
G1 X66.412 Y113.053 E18.17061
G1 X65.361 Y113.708 E18.21179
G1 X64.345 Y114.054 E18.24749
G1 X56.735 Y114.35 E18.50079
G1 X49.52 Y114.825 E18.74128
G1 X48.408 Y114.665 E18.77865
G1 X47.254 Y114.152 E18.82065
G1 X46.448 Y113.423 E18.8568
G1 X45.986 Y112.814 E18.88223
G1 X45.481 Y111.724 E18.92218
G1 X45.402 Y110.774 E18.95389
G1 X45.619 Y106.565 E19.09406
G1 X45.8 Y105.903 E19.11689
G1 X46.423 Y104.577 E19.16562
G1 X47.687 Y103.386 E19.22338
M204 S2000
M205 X10 Y10
G0 F3000 X47.911 Y103.724
M204 S1000
M205 X8 Y8
G1 F2400 X49.361 Y103.072 E19.27626
G1 X57.722 Y102.31 E19.5555
G1 X65.389 Y101.959 E19.81077
G1 X71.626 Y101.944 E20.01822
G1 X71.824 Y98.262 E20.14086
G1 X72.241 Y97.17 E20.17974
G1 X72.784 Y96.46 E20.20947
G1 X73.635 Y95.721 E20.24695
G1 X74.749 Y95.338 E20.28613
G1 X75.736 Y95.252 E20.31909
G1 X85.725 Y95.737 E20.65171
G1 X95.675 Y96.585 E20.98385
G1 X105.583 Y97.791 E21.31582
G1 X115.417 Y99.359 E21.64704
G1 X125.173 Y101.277 E21.97773
G1 X134.824 Y103.544 E22.30746
G1 X144.269 Y106.138 E22.63324
G1 X153.752 Y109.127 E22.96394
G1 X163 Y112.433 E23.29059
G1 X172.213 Y116.12 E23.62065
G1 X173.129 Y116.804 E23.65867
G1 X174.053 Y118.211 E23.71466
G1 X174.625 Y119.589 E23.76428
G1 X174.934 Y121.134 E23.81668
G1 X174.928 Y122.662 E23.86751
G1 X174.631 Y124.099 E23.91631
G1 X174 Y125.582 E23.96992
G1 X173.084 Y126.884 E24.02286
G1 X172.227 Y127.77 E24.06386
G1 X170.675 Y128.893 E24.12758
G1 X169.296 Y129.544 E24.1783
G1 X168.261 Y129.87 E24.21439
G1 X166.35 Y130.161 E24.27868
G1 X164.869 Y130.142 E24.32794
G1 X163.434 Y129.928 E24.3762
G1 X154.777 Y126.679 E24.68374
G1 X146.371 Y123.872 E24.9785
G1 X137.79 Y121.344 E25.27604
G1 X128.99 Y119.095 E25.57813
G1 X120.56 Y117.256 E25.86511
G1 X118.693 Y117.903 E25.93083
G1 X117.593 Y118.026 E25.96764
G1 X111.559 Y116.974 E26.17136
G1 X105.771 Y116.073 E26.36619
G1 X105.064 Y115.847 E26.39088
G1 X102.597 Y114.321 E26.48736
G1 X93.508 Y113.326 E26.79147
G1 X84.291 Y112.656 E27.09884
G1 X74.834 Y112.312 E27.41358
G1 X66.542 Y112.316 E27.68938
G1 X66.2 Y112.714 E27.70683
G1 X65.191 Y113.343 E27.74638
G1 X64.271 Y113.656 E27.7787
G1 X56.719 Y113.95 E28.03007
G1 X49.537 Y114.423 E28.26946
G1 X48.52 Y114.277 E28.30363
G1 X47.474 Y113.812 E28.34171
G1 X46.743 Y113.151 E28.37449
G1 X46.331 Y112.607 E28.39718
G1 X45.874 Y111.621 E28.43333
G1 X45.801 Y110.741 E28.4627
G1 X46.016 Y106.63 E28.59962
G1 X46.162 Y106.073 E28.61877
G1 X46.753 Y104.815 E28.665
G1 X47.911 Y103.724 E28.71791
M204 S2000
M205 X10 Y10
G0 F3000 X48.135 Y104.062
M204 S1000
M205 X8 Y8
G1 F2400 X49.465 Y103.464 E28.76642
G1 X57.74 Y102.71 E29.04278
G1 X65.39 Y102.359 E29.29749
G1 X72.005 Y102.343 E29.51751
G1 X72.22 Y98.348 E29.65057
G1 X72.594 Y97.367 E29.68549
G1 X73.078 Y96.734 E29.712
G1 X73.839 Y96.074 E29.7455
G1 X74.833 Y95.732 E29.78046
G1 X75.717 Y95.652 E29.80998
G1 X85.691 Y96.136 E30.14211
G1 X95.627 Y96.982 E30.47378
G1 X105.52 Y98.186 E30.80525
G1 X115.34 Y99.751 E31.13599
G1 X125.082 Y101.666 E31.46621
G1 X134.718 Y103.93 E31.79543
G1 X144.163 Y106.524 E32.1212
G1 X153.617 Y109.504 E32.4509
G1 X162.851 Y112.804 E32.77704
G1 X172.017 Y116.472 E33.10541
G1 X172.832 Y117.081 E33.13925
G1 X173.699 Y118.401 E33.19178
G1 X174.24 Y119.704 E33.2387
G1 X174.534 Y121.172 E33.2885
G1 X174.528 Y122.619 E33.33662
G1 X174.247 Y123.98 E33.38285
G1 X173.648 Y125.387 E33.43371
G1 X172.796 Y126.606 E33.48317
G1 X171.939 Y127.492 E33.52417
G1 X170.471 Y128.547 E33.5843
G1 X169.176 Y129.162 E33.63198
G1 X168.141 Y129.488 E33.66807
G1 X166.354 Y129.761 E33.7282
G1 X164.928 Y129.746 E33.77563
G1 X163.532 Y129.538 E33.82257
G1 X154.91 Y126.302 E34.12887
G1 X146.484 Y123.488 E34.42434
G1 X137.889 Y120.956 E34.72236
G1 X129.089 Y118.707 E35.02445
G1 X120.535 Y116.841 E35.31565
G1 X118.606 Y117.51 E35.38356
G1 X117.604 Y117.622 E35.41709
G1 X111.628 Y116.58 E35.61885
G1 X105.833 Y115.678 E35.81392
G1 X105.231 Y115.48 E35.835
G1 X102.729 Y113.933 E35.93283
G1 X93.552 Y112.928 E36.23989
G1 X84.306 Y112.256 E36.54822
G1 X74.849 Y111.912 E36.86297
G1 X66.347 Y111.916 E37.14575
G1 X65.988 Y112.375 E37.16513
G1 X65.021 Y112.978 E37.20303
G1 X64.197 Y113.258 E37.23198
G1 X56.703 Y113.55 E37.48142
G1 X49.554 Y114.021 E37.71971
G1 X48.632 Y113.889 E37.75069
G1 X47.694 Y113.472 E37.78483
G1 X47.038 Y112.879 E37.81424
G1 X46.676 Y112.401 E37.83419
G1 X46.267 Y111.518 E37.86655
G1 X46.2 Y110.708 E37.89359
G1 X46.413 Y106.69 E38.02741
G1 X46.524 Y106.243 E38.04273
G1 X47.083 Y105.053 E38.08646
G1 X48.135 Y104.062 E38.13453
M204 S2000
M205 X10 Y10
G0 F3000 X48.359 Y104.4
M204 S1000
M205 X8 Y8
G1 F2400 X49.569 Y103.856 E38.17866
G1 X57.758 Y103.11 E38.45215
G1 X65.391 Y102.759 E38.70629
G1 X72.384 Y102.742 E38.93888
G1 X72.616 Y98.433 E39.08241
G1 X72.947 Y97.564 E39.11334
G1 X73.372 Y97.008 E39.13661
G1 X74.043 Y96.427 E39.16613
G1 X74.917 Y96.126 E39.19688
G1 X75.698 Y96.052 E39.22297
G1 X85.657 Y96.535 E39.5546
G1 X95.579 Y97.379 E39.8858
G1 X105.457 Y98.581 E40.21676
G1 X115.263 Y100.143 E40.54703
G1 X124.99 Y102.055 E40.87674
G1 X134.612 Y104.316 E41.20548
G1 X144.057 Y106.91 E41.53126
G1 X153.482 Y109.881 E41.85994
G1 X162.702 Y113.175 E42.18558
G1 X171.821 Y116.824 E42.51226
G1 X172.537 Y117.359 E42.54199
G1 X173.343 Y118.587 E42.59085
G1 X173.856 Y119.821 E42.63529
G1 X174.134 Y121.21 E42.68241
G1 X174.128 Y122.576 E42.72784
G1 X173.863 Y123.861 E42.77148
G1 X173.297 Y125.191 E42.81956
G1 X172.508 Y126.328 E42.86559
G1 X171.651 Y127.214 E42.90658
G1 X170.298 Y128.186 E42.96199
G1 X169.056 Y128.78 E43.00778
G1 X168.021 Y129.106 E43.04388
G1 X166.357 Y129.361 E43.09987
G1 X164.987 Y129.35 E43.14544
G1 X163.63 Y129.148 E43.19107
G1 X155.043 Y125.925 E43.49613
G1 X146.597 Y123.104 E43.7923
G1 X137.988 Y120.568 E44.0908
G1 X129.188 Y118.319 E44.39289
G1 X120.51 Y116.426 E44.68831
G1 X118.519 Y117.117 E44.75841
G1 X117.615 Y117.218 E44.78866
G1 X111.697 Y116.186 E44.98847
G1 X105.958 Y115.298 E45.18162
G1 X105.399 Y115.114 E45.20119
G1 X102.861 Y113.545 E45.30043
G1 X93.596 Y112.53 E45.61043
G1 X84.321 Y111.856 E45.91973
G1 X74.864 Y111.512 E46.23448
G1 X66.152 Y111.516 E46.52425
G1 X65.715 Y112.074 E46.54782
G1 X64.851 Y112.613 E46.58169
G1 X64.123 Y112.86 E46.60726
G1 X56.687 Y113.15 E46.85477
G1 X49.57 Y113.619 E47.09199
G1 X48.744 Y113.501 E47.11975
G1 X47.914 Y113.132 E47.14996
G1 X47.306 Y112.582 E47.17723
G1 X47.021 Y112.195 E47.19321
G1 X46.659 Y111.413 E47.22187
G1 X46.599 Y110.729 E47.24471
G1 X46.812 Y106.711 E47.37854
G1 X46.886 Y106.413 E47.38875
G1 X47.413 Y105.291 E47.42998
G1 X48.359 Y104.4 E47.4732
M204 S2000
M205 X10 Y10
G0 F3000 X48.583 Y104.738
M204 S1000
M205 X8 Y8
G1 F2400 X49.673 Y104.248 E47.51295
G1 X57.776 Y103.51 E47.78357
G1 X65.392 Y103.159 E48.03715
G1 X72.763 Y103.141 E48.28231
G1 X73.011 Y98.52 E48.43623
G1 X73.301 Y97.76 E48.46328
G1 X73.666 Y97.282 E48.48329
G1 X74.246 Y96.78 E48.5088
G1 X75.001 Y96.52 E48.53536
G1 X75.679 Y96.452 E48.55802
G1 X85.623 Y96.934 E48.88915
G1 X95.531 Y97.776 E49.21988
G1 X105.394 Y98.976 E49.55034
G1 X115.186 Y100.535 E49.88013
G1 X124.898 Y102.444 E50.20933
G1 X134.506 Y104.702 E50.5376
G1 X143.951 Y107.296 E50.86337
G1 X153.347 Y110.258 E51.19105
G1 X162.553 Y113.546 E51.51618
G1 X171.623 Y117.175 E51.8411
G1 X172.241 Y117.637 E51.86677
G1 X172.99 Y118.777 E51.91213
G1 X173.472 Y119.937 E51.95391
G1 X173.734 Y121.247 E51.99835
G1 X173.728 Y122.533 E52.04112
G1 X173.478 Y123.744 E52.08225
G1 X172.947 Y124.993 E52.12739
G1 X172.22 Y126.05 E52.17006
G1 X171.363 Y126.936 E52.21106
G1 X170.124 Y127.826 E52.2618
G1 X168.936 Y128.398 E52.30565
G1 X167.901 Y128.724 E52.34174
G1 X166.359 Y128.961 E52.39363
G1 X165.046 Y128.954 E52.4373
G1 X163.728 Y128.758 E52.48162
G1 X155.176 Y125.548 E52.78544
G1 X146.71 Y122.72 E53.08231
G1 X138.087 Y120.18 E53.3813
G1 X129.287 Y117.931 E53.6834
G1 X120.619 Y116.041 E53.97847
G1 X120.396 Y116.043 E53.98589
G1 X118.432 Y116.724 E54.05502
G1 X117.626 Y116.814 E54.082
G1 X111.766 Y115.792 E54.27984
G1 X106.083 Y114.918 E54.47108
G1 X105.567 Y114.748 E54.48915
G1 X102.993 Y113.157 E54.5898
G1 X93.64 Y112.132 E54.90274
G1 X84.336 Y111.456 E55.21301
G1 X74.879 Y111.112 E55.52776
G1 X65.957 Y111.116 E55.82451
G1 X65.445 Y111.771 E55.85216
G1 X64.679 Y112.248 E55.88217
G1 X64.049 Y112.462 E55.9043
G1 X56.671 Y112.75 E56.14988
G1 X49.586 Y113.217 E56.38604
G1 X48.855 Y113.113 E56.4106
G1 X48.136 Y112.793 E56.43678
G1 X47.574 Y112.285 E56.46197
G1 X47.384 Y112.027 E56.47263
G1 X47.051 Y111.308 E56.49898
G1 X46.998 Y110.75 E56.51763
G1 X47.211 Y106.732 E56.65145
G1 X47.248 Y106.583 E56.65656
G1 X47.743 Y105.529 E56.69529
G1 X48.583 Y104.738 E56.73366
M204 S2000
M205 X10 Y10
G0 F3000 X48.807 Y105.076
M204 S1000
M205 X8 Y8
G1 F2400 X49.777 Y104.64 E56.76904
G1 X57.794 Y103.91 E57.03679
G1 X65.393 Y103.559 E57.2898
G1 X72.964 Y103.541 E57.54161
G1 X73.146 Y103.462 E57.54821
G1 X73.406 Y98.607 E57.70992
G1 X73.675 Y97.903 E57.73499
G1 X73.928 Y97.584 E57.74853
G1 X74.449 Y97.133 E57.77145
G1 X75.085 Y96.914 E57.79382
G1 X75.66 Y96.852 E57.81306
G1 X85.589 Y97.333 E58.14368
G1 X95.483 Y98.173 E58.47394
G1 X105.331 Y99.371 E58.8039
G1 X115.109 Y100.927 E59.13321
G1 X124.806 Y102.833 E59.46191
G1 X134.4 Y105.088 E59.7897
G1 X143.845 Y107.682 E60.11548
G1 X153.212 Y110.635 E60.44214
G1 X162.404 Y113.917 E60.76677
G1 X171.425 Y117.526 E61.08993
G1 X171.945 Y117.915 E61.11153
G1 X172.637 Y118.967 E61.15341
G1 X173.088 Y120.053 E61.19252
G1 X173.334 Y121.284 E61.23427
G1 X173.328 Y122.49 E61.27439
G1 X173.093 Y123.627 E61.313
G1 X172.596 Y124.797 E61.35528
G1 X171.932 Y125.772 E61.39452
G1 X171.075 Y126.658 E61.43551
G1 X169.949 Y127.466 E61.48161
G1 X168.816 Y128.016 E61.5235
G1 X167.781 Y128.342 E61.55959
G1 X166.361 Y128.561 E61.60738
G1 X165.048 Y128.554 E61.65105
G1 X163.834 Y128.37 E61.69189
G1 X155.317 Y125.174 E61.99445
G1 X146.823 Y122.336 E62.29232
G1 X138.186 Y119.792 E62.59179
G1 X129.386 Y117.543 E62.89388
G1 X120.661 Y115.641 E63.19089
G1 X120.327 Y115.643 E63.202
G1 X118.345 Y116.331 E63.27178
G1 X117.637 Y116.41 E63.29548
G1 X111.835 Y115.398 E63.49136
G1 X106.144 Y114.523 E63.68287
G1 X105.737 Y114.383 E63.69719
G1 X103.194 Y112.811 E63.79662
G1 X102.976 Y112.752 E63.80414
G1 X93.684 Y111.734 E64.11504
G1 X84.351 Y111.056 E64.42627
G1 X74.894 Y110.712 E64.74102
G1 X65.762 Y110.716 E65.04475
G1 X65.172 Y111.47 E65.0766
G1 X64.508 Y111.884 E65.10262
G1 X63.976 Y112.064 E65.1213
G1 X56.655 Y112.35 E65.36499
G1 X49.602 Y112.815 E65.60008
G1 X48.968 Y112.725 E65.62138
G1 X48.356 Y112.453 E65.64365
G1 X47.842 Y111.988 E65.66671
G1 X47.747 Y111.859 E65.67203
G1 X47.443 Y111.203 E65.69608
G1 X47.397 Y110.771 E65.71053
G1 X47.61 Y106.753 E65.84436
G1 X48.073 Y105.767 E65.88059
G1 X48.807 Y105.076 E65.91412
M204 S2000
M205 X10 Y10
G0 F3000 X49.031 Y105.414
M204 S1000
M205 X8 Y8
G1 F2400 X49.881 Y105.032 E65.94511
G1 X57.813 Y104.31 E66.21002
G1 X65.394 Y103.959 E66.46244
G1 X73.019 Y103.941 E66.71605
G1 X73.303 Y103.861 E66.72586
G1 X73.503 Y103.677 E66.7349
G1 X73.544 Y103.519 E66.74033
G1 X73.801 Y98.694 E66.90104
G1 X74.028 Y98.101 E66.92215
G1 X74.19 Y97.887 E66.93108
G1 X74.654 Y97.486 E66.95148
G1 X75.216 Y97.292 E66.97125
G1 X75.641 Y97.252 E66.98545
G1 X85.555 Y97.732 E67.31558
G1 X95.435 Y98.57 E67.64537
G1 X105.268 Y99.766 E67.97483
G1 X115.032 Y101.319 E68.30366
G1 X124.714 Y103.222 E68.63185
G1 X134.294 Y105.474 E68.95916
G1 X143.739 Y108.068 E69.28494
G1 X153.078 Y111.012 E69.61062
